X: 550
T: Derdin Ne ise Saklama
C: Nasib´in Mehmet Yürü
O: Turkey
F: http://compmusic.upf.edu/node/140
N: kurdilihicazkar--sarki--senginsemai--derdin_ne--nasibin_mehmet_yuru
N: makam= kurdilihicazkar
N: form= sarki
N: usul= senginsemai = 6/4
M: 6/4
L: 1/16
K: C _B _e _A 
Q: 1/4=63
%%MIDI tuningsystem comma53
g/a/g/f/g2 g/a/g/f/g2 g/a/g/f/g2 gf/e/d/c/B/A/ G4 zcd_2/4e  | 
w:  ARANAĞME  | 
f3/2_2/4e/de f3/2e/de fg{a}gf (3ede(3fed c6z2  | \
w:   | 
c2d_2/4e f2g2 f2e2 d2c2 B6B/A/G/A/  | 
w:   | 
BcB/A/G/A/ BcB/A/G/A/ d2cB BAAG G8  | \
w:   | 
g/a/g/f/g2 g/a/g/f/g2 g/a/g/f/g2 gf/e/d/c/B/A/ G4 zcd_2/4e  | 
w:  ARANAĞME  | 
f3/2_2/4e/de f3/2e/de fg{a}gf (3ede(3fed c6z2  | \
w:   | 
c2d_2/4e f2g2 f2e2 d2c2 B6B/A/G/A/  | 
w:   | 
BcB/A/G/A/ BcB/A/G/A/ d2cB BAAG G8  | \
w:   | 
g4 g{a}g/^f/g2 a3g f2g2 e6z2  | 
w:  Der din  *  *  *  *  ne  *  i *  se   | 
(3g2f2e2 d4 d2{e}dc c2B2 f3/2e/d3/2c/ B3/2A/G2  | \
w:  sak *  *  *  la *  *  *  ma  *  mah  | 
gf_2/4ed ef{g}g2 fe/d/ef e3/2d/c2 e2f2 g2{b}ag  | 
w:  rem  *  *  *  *  *  *  *  o *  *  *  *  la *  *  yım   | 
g8 g3/2f/f3/2e/ e3/2d/d3/2c/ c3/2B/B3/2A/ A3/2G/G2  | \
w:  ben   SAZ  | 
g4 g{a}g/^f/g2 a3g f2g2 e6z2  | 
w:  Der din  *  *  *  *  ne  *  i *  se   | 
(3g2f2e2 d4 d2{e}dc c2B2 f3/2e/d3/2c/ B3/2A/G2  | \
w:  sak *  *  *  la *  *  *  ma  *  mah  | 
gf_2/4ed ef{g}g2 fe/d/ef e3/2d/c2 e2f2 g2{b}ag  | 
w:  rem  *  *  *  *  *  *  *  o *  *  *  *  la *  *  yım   | 
g8 gagf e3/2d/ef g8  | a2gf b2ag c'2b_2/4a b3/2a/{b}a3/2g/ g8  | 
w:  ben   SAZ  |  Cür *  *  müm  *  *  ne  *  *  i *  *  *  *  se   | 
b2a2 g2f2 e3/2d/c2 d2_2/4eg f8  | \
w:  söy *  *  *  le  *  *  de  *  *  mah  | 
f{g}f_2/4e_3/4d c4 c2{_7/8d}cB _2/4A4 B2c2 c{d}BBA  | 
w:  kûm  *  *  *  *  *  ka *  *  *  la yım   | 
_2/4A8 c3B {c}cBAB c8  | c4 _3/4d4 _2/4e4 f2a2 g2f2 _e2=d2  | \
w:  ben   SAZ  |  Cür müm  ne  i *  se   | 
c6cB B3_2/4A {c}BAAG G8  | 
w:  söy *  *  le  *  *  de  *  *  *  mah  | 
cBAG _2/4ABc2 BA/G/AB _A3/2G/F2 G2AB cB/A/AG  | 
w:  kûm  *  *  *  *  *  *  ka *  *  *  *  la *  *  yım   | 
G8 g_7/8ag^f e3/2d/ef g8  | _7/8a2g^f g2f_7/8e _1/4b2ag bagf e6z2  | 
w:  ben   SAZ  |  Aç  *  *  kal *  *  bi *  *  ni  *  *  *  dök   | 
a2_g2 f2e2 _d2_1/4c2 B2f2 edcB A_1/4G/^F/G2  | \
w:  der *  *  *  di *  ni  *  tah  | 
A2B6 c4 d4 e2f2 g2fe  | 
w:  fîf_ *  i  e lem   | 
e8 B4 c3/2B/cd e8  | e3f f4 f4 b4 b_2/4a_7/8gf e_1/4d/^c/d2  | \
w:  et   SAZ  |  Gül *  dür me ye cek  | 
e4 f4 g3f ee/d/ef g6z2  | 
w:  sen  *  de  *  be be *  *  *  ni   | 
gfed efg2 fe/d/ef e3/2d/c2 e2f2 g2ag  | \
w:  gül  *  *  *  *  *  *  gü *  *  *  *  ze *  *  lim   | 
g8 gagf e3/2d/ef g8  | 
w:  sen   SAZ  | 
a2gf b2ag c'2b_2/4a b3/2a/{b}a3/2g/ g8  | \
w:  Cür *  *  müm  *  *  ne  *  *  i *  *  *  *  se   | 
b2a2 g2f2 e3/2d/c2 d2_2/4eg f8  | 
w:  söy *  *  *  le  *  *  de  *  *  mah  | 
f{g}f_2/4e_3/4d c4 c2{_7/8d}cB _2/4A4 B2c2 c{d}BBA  | \
w:  kûm  *  *  *  *  *  ka *  *  *  la yım   | 
_2/4A8 c3B {c}cBAB c8  | 
w:  ben   SAZ  | 
c4 _3/4d4 _2/4e4 f2a2 g2f2 _e2=d2  | \
w:  Cür müm  ne  i *  se   | 
c6cB B3_2/4A {c}BAAG G8  | cBAG _2/4ABc2 BA/G/AB _A3/2G/F2 G2AB cB/A/AG  | 
w:  söy *  *  le  *  *  de  *  *  *  mah  |  kûm  *  *  *  *  *  *  ka *  *  *  *  la *  *  yım   | 
G8 |
w:  ben    | 


